public/img/icon-instagram.svg

<svg width="32" height="32" viewBox="0 0 32 32" fill="none" xmlns="http://www.w3.org/2000/svg">
<path d="M10.6648 3.2002C6.54851 3.2002 3.2002 6.55161 3.2002 10.6689V21.3356C3.2002 25.4519 6.55161 28.8002 10.6689 28.8002H21.3356C25.4519 28.8002 28.8002 25.4488 28.8002 21.3314V10.6648C28.8002 6.54851 25.4488 3.2002 21.3314 3.2002H10.6648ZM23.4669 7.46686C24.0557 7.46686 24.5335 7.94473 24.5335 8.53353C24.5335 9.12233 24.0557 9.6002 23.4669 9.6002C22.8781 9.6002 22.4002 9.12233 22.4002 8.53353C22.4002 7.94473 22.8781 7.46686 23.4669 7.46686ZM16.0002 9.6002C19.5298 9.6002 22.4002 12.4706 22.4002 16.0002C22.4002 19.5298 19.5298 22.4002 16.0002 22.4002C12.4706 22.4002 9.6002 19.5298 9.6002 16.0002C9.6002 12.4706 12.4706 9.6002 16.0002 9.6002ZM16.0002 11.7335C14.8686 11.7335 13.7834 12.1831 12.9832 12.9832C12.1831 13.7834 11.7335 14.8686 11.7335 16.0002C11.7335 17.1318 12.1831 18.217 12.9832 19.0172C13.7834 19.8173 14.8686 20.2669 16.0002 20.2669C17.1318 20.2669 18.217 19.8173 19.0172 19.0172C19.8173 18.217 20.2669 17.1318 20.2669 16.0002C20.2669 14.8686 19.8173 13.7834 19.0172 12.9832C18.217 12.1831 17.1318 11.7335 16.0002 11.7335Z" fill="#fff"/>
</svg>

<?xml version="1.0" encoding="UTF-8"?>
<svg id="Layer_1" xmlns="http://www.w3.org/2000/svg" version="1.1" viewBox="0 0 32 32">
  <!-- Generator: Adobe Illustrator 29.3.1, SVG Export Plug-In . SVG Version: 2.1.0 Build 151)  -->
  <defs>
    <style>
      .st0 {
        fill: #292929;
      }
    </style>
  </defs>
  <path class="st0" d="M10.7,3.2c-4.1,0-7.5,3.4-7.5,7.5v10.7c0,4.1,3.4,7.5,7.5,7.5h10.7c4.1,0,7.5-3.4,7.5-7.5v-10.7c0-4.1-3.4-7.5-7.5-7.5h-10.7ZM23.5,7.5c.6,0,1.1.5,1.1,1.1s-.5,1.1-1.1,1.1-1.1-.5-1.1-1.1.5-1.1,1.1-1.1ZM16,9.6c3.5,0,6.4,2.9,6.4,6.4s-2.9,6.4-6.4,6.4-6.4-2.9-6.4-6.4,2.9-6.4,6.4-6.4ZM16,11.7c-1.1,0-2.2.4-3,1.2-.8.8-1.2,1.9-1.2,3s.4,2.2,1.2,3c.8.8,1.9,1.2,3,1.2s2.2-.4,3-1.2c.8-.8,1.2-1.9,1.2-3s-.4-2.2-1.2-3c-.8-.8-1.9-1.2-3-1.2Z"/>
</svg>
